src/assets/icons/cart.svg

<svg width="24" height="23" viewBox="0 0 24 23" fill="none" xmlns="http://www.w3.org/2000/svg">
<path fill-rule="evenodd" clip-rule="evenodd" d="M20.25 18.25C20.1894 18.2044 20.1267 18.1616 20.062 18.1216C20.0386 18.1071 20.0149 18.0931 19.991 18.0794C19.961 18.0622 19.9306 18.0456 19.8998 18.0296C19.8559 18.0068 19.8111 17.9852 19.7656 17.965C19.6872 17.93 19.6065 17.899 19.524 17.8721C19.436 17.8435 19.3459 17.8196 19.2538 17.8008C19.0911 17.7675 18.9226 17.75 18.75 17.75C18.1871 17.75 17.6676 17.936 17.2498 18.25H20.25ZM8.48683 17.8027C8.47266 17.8057 8.45852 17.8088 8.44444 17.812C8.35742 17.8317 8.27214 17.856 8.18886 17.8845C8.12639 17.906 8.06505 17.9298 8.00495 17.9559C7.94004 17.9841 7.87658 18.015 7.81468 18.0484C7.79812 18.0573 7.78167 18.0664 7.76534 18.0757C7.73925 18.0906 7.71346 18.1059 7.68797 18.1216C7.6233 18.1616 7.56062 18.2045 7.5 18.25C6.89291 18.7061 6.5 19.4322 6.5 20.25C6.5 21.6307 7.61929 22.75 9 22.75C10.3807 22.75 11.5 21.6307 11.5 20.25C11.5 19.4322 11.1073 18.7061 10.5002 18.25H7.5C7.56062 18.2045 7.6233 18.1616 7.68797 18.1216C7.71346 18.1059 7.73925 18.0906 7.76534 18.0757C7.78167 18.0664 7.79812 18.0573 7.81468 18.0484C7.87658 18.015 7.94004 17.9841 8.00495 17.9559C8.06505 17.9298 8.12639 17.906 8.18886 17.8845C8.28563 17.8514 8.3851 17.824 8.48683 17.8027ZM9 19.75C8.72386 19.75 8.5 19.9739 8.5 20.25C8.5 20.5261 8.72386 20.75 9 20.75C9.27614 20.75 9.5 20.5261 9.5 20.25C9.5 19.9739 9.27614 19.75 9 19.75Z" fill="black"/>
<path fill-rule="evenodd" clip-rule="evenodd" d="M20.062 18.1216C20.0386 18.1071 20.0149 18.0931 19.991 18.0794C19.961 18.0622 19.9306 18.0456 19.8998 18.0296C19.9552 18.0583 20.0092 18.089 20.062 18.1216Z" fill="black"/>
<path fill-rule="evenodd" clip-rule="evenodd" d="M1.5 0.5C0.947715 0.5 0.5 0.947715 0.5 1.5C0.5 2.05228 0.947715 2.5 1.5 2.5H2.96014L4.65139 9.60325L5.77561 14.4749C5.79641 14.565 5.82904 14.6499 5.87161 14.7282L6.52719 17.4816C6.63445 17.9321 7.03694 18.25 7.5 18.25C7.56062 18.2045 7.6233 18.1616 7.68797 18.1216C7.71346 18.1059 7.73925 18.0906 7.76534 18.0757C7.78167 18.0664 7.79812 18.0573 7.81468 18.0484C7.87658 18.015 7.94004 17.9841 8.00495 17.9559C8.06505 17.9298 8.12639 17.906 8.18886 17.8845C8.27214 17.856 8.35742 17.8317 8.44444 17.812C8.45852 17.8088 8.47266 17.8057 8.48683 17.8027C8.65246 17.7682 8.82411 17.75 9 17.75C9.56291 17.75 10.0824 17.936 10.5002 18.25H17.2498C17.6676 17.936 18.1871 17.75 18.75 17.75C18.9226 17.75 19.0911 17.7675 19.2538 17.8008C19.3459 17.8196 19.436 17.8435 19.524 17.8721C19.6065 17.899 19.6872 17.93 19.7656 17.965C19.8111 17.9852 19.8559 18.0068 19.8998 18.0296C19.9306 18.0456 19.961 18.0622 19.991 18.0794C20.0149 18.0931 20.0386 18.1071 20.062 18.1216C20.1267 18.1616 20.1894 18.2044 20.25 18.25C20.8023 18.25 21.25 17.8023 21.25 17.25C21.25 16.6977 20.8023 16.25 20.25 16.25H8.28986L8.05176 15.25H20.25C20.7157 15.25 21.1197 14.9286 21.2244 14.4749L23.4744 4.72486C23.5429 4.42792 23.4723 4.11594 23.2826 3.87745C23.0929 3.63896 22.8047 3.5 22.5 3.5H5.25414L4.72281 1.26838C4.61555 0.817911 4.21306 0.5 3.75 0.5H1.5ZM19.4545 13.25H7.57557L6.59861 9.14675L5.75705 5.5H21.2429L19.4545 13.25ZM10.5002 18.25C10.0824 17.936 9.56291 17.75 9 17.75C8.82411 17.75 8.65246 17.7682 8.48683 17.8027C8.47266 17.8057 8.45852 17.8088 8.44444 17.812C8.35742 17.8317 8.27214 17.856 8.18886 17.8845C8.12639 17.906 8.06505 17.9298 8.00495 17.9559C7.94004 17.9841 7.87658 18.015 7.81468 18.0484C7.79812 18.0573 7.78167 18.0664 7.76534 18.0757C7.73925 18.0906 7.71346 18.1059 7.68797 18.1216C7.6233 18.1616 7.56062 18.2045 7.5 18.25H10.5002Z" fill="black"/>
<path fill-rule="evenodd" clip-rule="evenodd" d="M20.25 18.25C20.1894 18.2044 20.1267 18.1616 20.062 18.1216C20.0386 18.1071 20.0149 18.0931 19.991 18.0794C19.961 18.0622 19.9306 18.0456 19.8998 18.0296C19.8559 18.0068 19.8111 17.9852 19.7656 17.965C19.6872 17.93 19.6065 17.899 19.524 17.8721C19.436 17.8435 19.3459 17.8196 19.2538 17.8008C19.0911 17.7675 18.9226 17.75 18.75 17.75C18.1871 17.75 17.6676 17.936 17.2498 18.25H20.25Z" fill="black"/>
<path fill-rule="evenodd" clip-rule="evenodd" d="M20.25 18.25C20.25 18.25 20.25 18.25 20.25 18.25H17.2498C16.6427 18.7061 16.25 19.4322 16.25 20.25C16.25 21.6307 17.3693 22.75 18.75 22.75C20.1307 22.75 21.25 21.6307 21.25 20.25C21.25 19.4322 20.8571 18.7061 20.25 18.25ZM18.25 20.25C18.25 19.9739 18.4739 19.75 18.75 19.75C19.0261 19.75 19.25 19.9739 19.25 20.25C19.25 20.5261 19.0261 20.75 18.75 20.75C18.4739 20.75 18.25 20.5261 18.25 20.25Z" fill="black"/>
</svg>

<svg id="Layer_1" data-name="Layer 1" xmlns="http://www.w3.org/2000/svg" viewBox="0 0 23 22.25"><defs><style>.cls-1{fill:#c2c2c3;}.cls-1,.cls-2{fill-rule:evenodd;}</style></defs><path class="cls-1" d="M20.25,18.25l-.19-.13-.07,0-.09,0L19.77,18l-.25-.1-.27-.07a2.73,2.73,0,0,0-.5-.05,2.53,2.53,0,0,0-1.5.5ZM8.49,17.8H8.44l-.25.07L8,18l-.19.09,0,0-.08,0-.19.13a2.5,2.5,0,1,0,3,0h-3l.19-.13.08,0,0,0L8,18l.19-.08ZM9,19.75a.5.5,0,1,0,.5.5A.5.5,0,0,0,9,19.75Z" transform="translate(-0.5 -0.5)"/><path class="cls-2" d="M20.06,18.12l-.07,0-.09,0Z" transform="translate(-0.5 -0.5)"/><path class="cls-1" d="M1.5.5a1,1,0,0,0,0,2H3L4.65,9.6l1.13,4.87a1.14,1.14,0,0,0,.09.26l.66,2.75a1,1,0,0,0,1,.77l.19-.13.08,0,0,0L8,18l.19-.08.25-.07h.05A2.76,2.76,0,0,1,9,17.75a2.53,2.53,0,0,1,1.5.5h6.75a2.53,2.53,0,0,1,1.5-.5,2.73,2.73,0,0,1,.5.05l.27.07.25.1.13.06.09,0,.07,0,.19.13a1,1,0,0,0,0-2h-12l-.24-1h12.2a1,1,0,0,0,1-.78l2.25-9.75a1,1,0,0,0-.19-.84,1,1,0,0,0-.78-.38H5.25L4.72,1.27a1,1,0,0,0-1-.77Zm18,12.75H7.58l-1-4.1L5.76,5.5H21.24Zm-8.95,5a2.53,2.53,0,0,0-1.5-.5,2.76,2.76,0,0,0-.51.05H8.44l-.25.07L8,18l-.19.09,0,0-.08,0-.19.13Z" transform="translate(-0.5 -0.5)"/><path class="cls-1" d="M20.25,18.25l-.19-.13-.07,0-.09,0L19.77,18l-.25-.1-.27-.07a2.73,2.73,0,0,0-.5-.05,2.53,2.53,0,0,0-1.5.5Z" transform="translate(-0.5 -0.5)"/><path class="cls-1" d="M20.25,18.25h-3a2.5,2.5,0,1,0,3,0Zm-2,2a.5.5,0,1,1,.5.5A.5.5,0,0,1,18.25,20.25Z" transform="translate(-0.5 -0.5)"/></svg>
